64x64/apps/tellico.svg

<svg height="64" width="64" xmlns="http://www.w3.org/2000/svg"><path d="m4 56.2v2c0 1.55 1.25 2.8 2.8 2.8h36.4c1.55 0 2.8-1.25 2.8-2.8v-2c0 1.55-1.25 2.8-2.8 2.8h-36.4c-1.55 0-2.8-1.25-2.8-2.8z" opacity=".2"/><rect fill="#42cf57" height="42" rx="2.8" transform="matrix(0 -1 -1 0 0 0)" width="14" x="-60" y="-46"/><path d="m18 42.2v2c0 1.55 1.25 2.8 2.8 2.8h36.398a2.796 2.796 0 0 0 2.802-2.8v-2c0 1.55-1.25 2.8-2.8 2.8h-36.4c-1.55 0-2.8-1.25-2.8-2.8z" opacity=".2"/><rect fill="#2ea0e3" height="42" rx="2.8" transform="matrix(0 -1 -1 0 0 0)" width="14" x="-46" y="-60"/><path d="m4 28.2v2c0 1.55 1.25 2.8 2.8 2.8h36.4c1.55 0 2.8-1.25 2.8-2.8v-2c0 1.55-1.25 2.8-2.8 2.8h-36.4c-1.55 0-2.8-1.25-2.8-2.8z" opacity=".2"/><rect fill="#e65957" height="42" rx="2.8" transform="matrix(0 -1 -1 0 0 0)" width="14" x="-32" y="-46"/><path d="m18 14.2v2c0 1.55 1.25 2.8 2.8 2.8h36.398a2.796 2.796 0 0 0 2.802-2.8v-2c0 1.55-1.25 2.8-2.8 2.8h-36.4c-1.55 0-2.8-1.25-2.8-2.8z" opacity=".2"/><rect fill="#ffe766" height="42" rx="2.8" transform="matrix(0 -1 -1 0 0 0)" width="14" x="-18" y="-60"/><path d="m20.8 4c-1.55 0-2.8 1.25-2.8 2.8v1c0-1.55 1.25-2.8 2.8-2.8h36.4c1.55 0 2.8 1.25 2.8 2.8v-1c0-1.55-1.25-2.8-2.8-2.8zm-14 14c-1.55 0-2.8 1.25-2.8 2.8v1c0-1.55 1.25-2.8 2.8-2.8h36.401c1.55 0 2.799 1.25 2.799 2.8v-1c0-1.55-1.249-2.8-2.799-2.8h-36.4zm14 14c-1.55 0-2.8 1.25-2.8 2.8v1c0-1.55 1.25-2.8 2.8-2.8h36.4c1.55 0 2.8 1.25 2.8 2.8v-1c0-1.55-1.25-2.8-2.8-2.8zm-14 14c-1.55 0-2.8 1.25-2.8 2.8v1c0-1.55 1.25-2.8 2.8-2.8h36.401c1.55 0 2.799 1.25 2.799 2.8v-1c0-1.55-1.249-2.8-2.799-2.8h-36.4z" fill="#f4f4f7" opacity=".2"/></svg>

<svg xmlns="http://www.w3.org/2000/svg" width="64" height="64"><path style="opacity:.2" d="M4 56.2v2C4 59.75 5.25 61 6.8 61h36.4c1.55 0 2.8-1.25 2.8-2.8v-2c0 1.55-1.25 2.8-2.8 2.8H6.8C5.25 59 4 57.75 4 56.2z"/><rect style="fill:#42cf57" width="14" height="42" x="-60" y="-46" rx="2.8" ry="2.8" transform="matrix(0 -1 -1 0 0 0)"/><path style="opacity:.2" d="M18 42.2v2c0 1.55 1.25 2.8 2.8 2.8h36.398A2.796 2.796 0 0 0 60 44.2v-2c0 1.55-1.25 2.8-2.8 2.8H20.8c-1.55 0-2.8-1.25-2.8-2.8z"/><rect style="fill:#2ea0e3" width="14" height="42" x="-46" y="-60" rx="2.8" ry="2.8" transform="matrix(0 -1 -1 0 0 0)"/><path style="opacity:.2" d="M4 28.2v2C4 31.75 5.25 33 6.8 33h36.4c1.55 0 2.8-1.25 2.8-2.8v-2c0 1.55-1.25 2.8-2.8 2.8H6.8C5.25 31 4 29.75 4 28.2z"/><rect style="fill:#e65957" width="14" height="42" x="-32" y="-46" rx="2.8" ry="2.8" transform="matrix(0 -1 -1 0 0 0)"/><path style="opacity:.2" d="M18 14.2v2c0 1.55 1.25 2.8 2.8 2.8h36.398A2.796 2.796 0 0 0 60 16.2v-2c0 1.55-1.25 2.8-2.8 2.8H20.8c-1.55 0-2.8-1.25-2.8-2.8z"/><rect style="fill:#ffe766" width="14" height="42" x="-18" y="-60" rx="2.8" ry="2.8" transform="matrix(0 -1 -1 0 0 0)"/><path style="opacity:.2;fill:#f4f4f7" d="M20.8 4C19.25 4 18 5.25 18 6.8v1C18 6.25 19.25 5 20.8 5h36.4C58.75 5 60 6.25 60 7.8v-1C60 5.25 58.75 4 57.2 4H20.8zM6.8 18C5.25 18 4 19.25 4 20.8v1C4 20.25 5.25 19 6.8 19h36.401C44.751 19 46 20.25 46 21.8v-1c0-1.55-1.249-2.8-2.799-2.8h-36.4zM20.8 32c-1.55 0-2.8 1.25-2.8 2.8v1c0-1.55 1.25-2.8 2.8-2.8H57.2C58.75 33 60 34.25 60 35.8v-1c0-1.55-1.25-2.8-2.8-2.8H20.8zM6.8 46C5.25 46 4 47.25 4 48.8v1C4 48.25 5.25 47 6.8 47h36.401C44.751 47 46 48.25 46 49.8v-1c0-1.55-1.249-2.8-2.799-2.8h-36.4z"/></svg>
